assets/Axe/Flat/axe_flat.svg

<svg width="32" height="32" viewBox="0 0 32 32" fill="none" xmlns="http://www.w3.org/2000/svg">
<path d="M13.5175 2.35045C13.3275 2.02045 12.9075 1.90045 12.5775 2.09045L10.8975 3.06045C10.5675 3.25045 10.4575 3.67045 10.6475 4.01045L21.7075 23.1605C22.1375 23.9005 22.3675 24.7505 22.3675 25.6005V27.4705C22.3675 28.8705 23.4975 30.0005 24.8975 30.0005C25.3975 30.0005 25.8875 29.8605 26.3175 29.5905C27.5275 28.8305 27.9175 27.2505 27.1975 26.0205L13.5175 2.35045Z" fill="#7D4533"/>
<path d="M9.36752 5.92055L14.5875 2.91055C14.8875 2.73055 15.2575 2.81055 15.4175 3.08055L18.8575 9.04055C19.0175 9.30055 18.8975 9.66055 18.5975 9.83055L13.3775 12.8406C12.8422 13.1484 12.3741 13.5636 12.0001 14.0534C6.99997 15.5001 4.50003 9.04055 7.68188 6.50291C8.27441 6.41799 8.84642 6.22019 9.36752 5.92055Z" fill="#F8312F"/>
<path d="M7.73752 6.49048C6.39752 7.90048 6.07752 10.0805 7.09752 11.8405C8.11752 13.6105 10.1675 14.4205 12.0675 13.9705C11.8575 14.2305 11.6675 14.5205 11.5175 14.8305L11.2275 15.4205C11.1675 15.5205 11.0575 15.5905 10.9375 15.5905C8.88752 15.5705 6.90752 14.4905 5.80752 12.5905C4.70752 10.6905 4.76752 8.44048 5.76752 6.65048C5.82752 6.55048 5.93752 6.49048 6.05752 6.49048L6.71752 6.54048C7.05752 6.56048 7.39752 6.54048 7.73752 6.49048Z" fill="#D3D3D3"/>
<path d="M25.9275 27.2904C25.9275 27.8427 25.4798 28.2904 24.9275 28.2904C24.3752 28.2904 23.9275 27.8427 23.9275 27.2904C23.9275 26.7381 24.3752 26.2904 24.9275 26.2904C25.4798 26.2904 25.9275 26.7381 25.9275 27.2904Z" fill="#D3D3D3"/>
</svg>

<svg xmlns="http://www.w3.org/2000/svg" width="32" height="32" fill="none"><path fill="#7D4533" d="M13.518 2.35a.69.69 0 0 0-.94-.26l-1.68.97c-.33.19-.44.61-.25.95l11.06 19.15c.43.74.66 1.59.66 2.44v1.87c0 1.4 1.13 2.53 2.53 2.53.5 0 .99-.14 1.42-.41 1.21-.76 1.6-2.34.88-3.57L13.518 2.35Z"/><path fill="#F8312F" d="m9.368 5.92 5.22-3.01c.3-.18.67-.1.83.17l3.44 5.96c.16.26.04.62-.26.79l-5.22 3.01A4.662 4.662 0 0 0 12 14.054C7 15.5 4.5 9.041 7.682 6.503a4.728 4.728 0 0 0 1.686-.582Z"/><path fill="#D3D3D3" d="M7.738 6.49c-1.34 1.41-1.66 3.59-.64 5.35 1.02 1.77 3.07 2.58 4.97 2.13-.21.26-.4.55-.55.86l-.29.59c-.06.1-.17.17-.29.17a5.992 5.992 0 0 1-5.13-3 5.995 5.995 0 0 1-.04-5.94c.06-.1.17-.16.29-.16l.66.05c.34.02.68 0 1.02-.05ZM25.927 27.29a1 1 0 1 1-2 0 1 1 0 0 1 2 0Z"/></svg>
